contributed-vectors/mubert.svg

<?xml version="1.0" encoding="UTF-8" standalone="no"?>
<svg
   xmlns:serif="http://www.serif.com/"
   xmlns:dc="http://purl.org/dc/elements/1.1/"
   xmlns:cc="http://creativecommons.org/ns#"
   xmlns:rdf="http://www.w3.org/1999/02/22-rdf-syntax-ns#"
   xmlns:svg="http://www.w3.org/2000/svg"
   xmlns="http://www.w3.org/2000/svg"
   xmlns:sodipodi="http://sodipodi.sourceforge.net/DTD/sodipodi-0.dtd"
   xmlns:inkscape="http://www.inkscape.org/namespaces/inkscape"
   width="100%"
   height="100%"
   viewBox="0 0 192 192"
   version="1.1"
   xml:space="preserve"
   style="fill-rule:evenodd;clip-rule:evenodd;stroke-linejoin:round;stroke-miterlimit:2;"
   id="svg20"
   sodipodi:docname="mubert.svg"
   inkscape:version="1.0.1 (3bc2e813f5, 2020-09-07)"
   inkscape:export-filename="mubert.png"
   inkscape:export-xdpi="96"
   inkscape:export-ydpi="96"><metadata
   id="metadata26"><rdf:RDF><cc:Work
       rdf:about=""><dc:format>image/svg+xml</dc:format><dc:type
         rdf:resource="http://purl.org/dc/dcmitype/StillImage" /></cc:Work></rdf:RDF></metadata><defs
   id="defs24" /><sodipodi:namedview
   pagecolor="#ffffff"
   bordercolor="#666666"
   borderopacity="1"
   objecttolerance="10"
   gridtolerance="10"
   guidetolerance="10"
   inkscape:pageopacity="0"
   inkscape:pageshadow="2"
   inkscape:window-width="1884"
   inkscape:window-height="1052"
   id="namedview22"
   showgrid="false"
   inkscape:zoom="3.4635417"
   inkscape:cx="96"
   inkscape:cy="96"
   inkscape:window-x="36"
   inkscape:window-y="0"
   inkscape:window-maximized="1"
   inkscape:current-layer="svg20" />
    <g
   transform="matrix(0.99346405,0,0,0.99346405,8.5751636,8.5751636)"
   id="g4"
   style="fill:#545859;fill-opacity:1">
            <path
   d="m 164.5,21.5 c 0,-5.519 -4.481,-10 -10,-10 h -133 c -5.519,0 -10,4.481 -10,10 v 133 c 0,5.519 4.481,10 10,10 h 133 c 5.519,0 10,-4.481 10,-10 z"
   style="fill:#545859;fill-opacity:1"
   id="path2" />
        </g><g
   id="red"
   transform="matrix(0.59100419,0,0,0.58940454,35.791825,39.344363)">
                <path
   d="m 109.164,42.658 c 26.477,0.988 37.189,16.539 37.716,35.8 1.408,51.528 -16.159,70.24 -45.422,70.24 -29.262,0 -66.505,-18.606 -66.505,-47.869 0,-29.262 47.106,-59.182 74.211,-58.171 z"
   style="fill:#ff837d"
   id="path6" />
            </g><g
   id="middle"
   transform="matrix(0.4167564,0,0,0.41562829,51.893647,55.842249)"
   style="fill:#545859;fill-opacity:1">
                <path
   d="m 121.633,45.397 c -7.8,0.49 9.044,-3.098 19.783,22.256 16.968,40.061 -2.326,74.231 -34.941,79.828 -34.225,5.873 -71.522,-17.389 -71.522,-46.652 0,-29.262 39.48,-60.774 86.68,-55.432 z"
   style="fill:#545859;fill-opacity:1"
   id="path9" />
            </g><path
   id="white"
   d="m 96.268219,65.026727 c 17.294071,0 31.334761,14.002849 31.334761,31.250662 0,17.247221 -14.04069,31.250061 -31.334761,31.250061 -17.294669,0 -31.335362,-14.00284 -31.335362,-31.250061 0,-17.247813 14.040693,-31.250662 31.335362,-31.250662 z m 0,9.67783 c 11.945461,0 21.657531,9.659208 21.657531,21.572832 0,11.913631 -9.71207,21.572831 -21.657531,21.572831 -11.946062,0 -21.658132,-9.6592 -21.658132,-21.572831 0,-11.913624 9.71207,-21.572832 21.658132,-21.572832 z"
   style="fill:#ebebeb;stroke-width:0.600697" /><g
   id="g15"
   transform="matrix(0.60069704,0,0,0.60069704,38.087106,38.260267)">
                <path
   id="white1"
   serif:id="white"
   d="m 138.038,64.664 c 6.882,8.817 10.982,19.894 10.982,31.919 0,28.712 -23.374,52.023 -52.164,52.023 -5.416,0 -10.64,-0.825 -15.555,-2.356 4.978,0.96 9.946,1.457 14.699,1.457 28.79,0 46.075,-18.36 44.688,-68.919 -0.137,-5.033 -0.986,-9.807 -2.65,-14.124 z"
   style="fill:#96dfd3" />
                <path
   id="teal"
   d="m 86.769,62.097 c -14.99,4.349 -25.968,18.143 -25.968,34.486 0,16.872 11.7,31.028 27.435,34.878 -21.118,-1.308 -41.002,-14.6 -41.002,-32.427 0,-18.646 21.373,-34.54 39.535,-36.937 z"
   style="fill:#96dfd3" />
            </g>
<style
   type="text/css"
   id="style853">
	.st0{fill:#FFFFFF;}
</style></svg>

<?xml version="1.0" encoding="UTF-8" standalone="no"?>
<!DOCTYPE svg PUBLIC "-//W3C//DTD SVG 1.1//EN" "http://www.w3.org/Graphics/SVG/1.1/DTD/svg11.dtd">
<svg width="100%" height="100%" viewBox="0 0 192 192" version="1.1" xmlns="http://www.w3.org/2000/svg" xmlns:xlink="http://www.w3.org/1999/xlink" xml:space="preserve" xmlns:serif="http://www.serif.com/" style="fill-rule:evenodd;clip-rule:evenodd;stroke-linejoin:round;stroke-miterlimit:2;">
    <g id="Layer1">
        <g transform="matrix(1,0,0,1,8,8)">
            <path d="M164.5,21.5C164.5,15.981 160.019,11.5 154.5,11.5L21.5,11.5C15.981,11.5 11.5,15.981 11.5,21.5L11.5,154.5C11.5,160.019 15.981,164.5 21.5,164.5L154.5,164.5C160.019,164.5 164.5,160.019 164.5,154.5L164.5,21.5Z" style="fill:rgb(74,74,74);"/>
        </g>
        <g transform="matrix(0.604649,0,0,0.604649,37.7061,37.8804)">
            <g id="red" transform="matrix(0.983864,0,0,0.981201,-3.82103,1.80473)">
                <path d="M109.164,42.658C135.641,43.646 146.353,59.197 146.88,78.458C148.288,129.986 130.721,148.698 101.458,148.698C72.196,148.698 34.953,130.092 34.953,100.829C34.953,71.567 82.059,41.647 109.164,42.658Z" style="fill:rgb(255,131,125);"/>
            </g>
            <g id="middle" transform="matrix(0.693788,0,0,0.69191,22.9842,29.2693)">
                <path d="M121.633,45.397C113.833,45.887 130.677,42.299 141.416,67.653C158.384,107.714 139.09,141.884 106.475,147.481C72.25,153.354 34.953,130.092 34.953,100.829C34.953,71.567 74.433,40.055 121.633,45.397Z" style="fill:rgb(74,74,74);"/>
            </g>
            <path id="white" d="M96.856,44.559C125.646,44.559 149.02,67.87 149.02,96.583C149.02,125.295 125.646,148.606 96.856,148.606C68.065,148.606 44.691,125.295 44.691,96.583C44.691,67.87 68.065,44.559 96.856,44.559ZM96.856,60.67C116.742,60.67 132.91,76.75 132.91,96.583C132.91,116.416 116.742,132.496 96.856,132.496C76.969,132.496 60.801,116.416 60.801,96.583C60.801,76.75 76.969,60.67 96.856,60.67Z" style="fill:rgb(235,235,235);"/>
            <g>
                <path id="white1" serif:id="white" d="M138.038,64.664C144.92,73.481 149.02,84.558 149.02,96.583C149.02,125.295 125.646,148.606 96.856,148.606C91.44,148.606 86.216,147.781 81.301,146.25C86.279,147.21 91.247,147.707 96,147.707C124.79,147.707 142.075,129.347 140.688,78.788C140.551,73.755 139.702,68.981 138.038,64.664Z" style="fill:rgb(150,223,211);"/>
                <path id="teal" d="M86.769,62.097C71.779,66.446 60.801,80.24 60.801,96.583C60.801,113.455 72.501,127.611 88.236,131.461C67.118,130.153 47.234,116.861 47.234,99.034C47.234,80.388 68.607,64.494 86.769,62.097Z" style="fill:rgb(150,223,211);"/>
            </g>
        </g>
    </g>
</svg>
